rospo-icon-theme-classic-common/16x16/apps/goa-account-google.svg

<svg height="16" viewBox="0 0 16 16" width="16" xmlns="http://www.w3.org/2000/svg"><circle cx="8" cy="8" fill="#d2d2d2" r="8"/><path d="m8 7v2h3.867188c-.223692.8660186-.731188 1.632076-1.441407 2.175781l1.652344 1.285157c1.188058-1.100002 1.921875-2.690938 1.921875-4.460938 0-.3412275-.031941-.6739633-.083984-1h-.916016-1.134766z" fill="#3779d7"/><path d="m8.1230469 2c-2.3505996 0-4.4480815 1.3503125-5.46875 3.3203125l1.6269531 1.2148437a4 4 0 0 1 3.71875-2.5351562 4 4 0 0 1 2.691406 1.0488281l1.457032-1.4492187c-1.041083-.99-2.4474376-1.5996094-4.0253911-1.5996094z" fill="#e7453c"/><path d="m2.6542969 5.3203125c-.4174534.81-.6542969 1.7196875-.6542969 2.6796875 0 .99.2524306 1.93.6933594 2.75l1.6015625-1.2480469a4 4 0 0 1 -.2949219-1.5019531 4 4 0 0 1  .28125-1.4648438z" fill="#eead33"/><path d="m4.2949219 9.5019531-1.6015625 1.2480469c1.0339372 1.93 3.1076667 3.25 5.4296875 3.25 1.5422301 0 2.9201201-.579063 3.9550781-1.539062l-1.652344-1.285157a4 4 0 0 1 -2.425781.824219 4 4 0 0 1 -3.7050781-2.4980469z" fill="#359950"/></svg>

<svg xmlns="http://www.w3.org/2000/svg" width="16" height="16" version="1.1" viewBox="0 0 16 16">
 <circle style="fill:#d2d2d2" cx="8" cy="8" r="8"/>
 <path style="fill:#3779d7" d="m 8,7 0,2 3.867188,0 C 11.643496,9.8660186 11.136,10.632076 10.425781,11.175781 l 1.652344,1.285157 C 13.266183,11.360936 14,9.77 14,8 14,7.6587725 13.968059,7.3260367 13.916016,7 L 13,7 11.865234,7 Z"/>
 <path style="fill:#e7453c" d="M 8.1230469 2 C 5.7724473 2 3.6749654 3.3503125 2.6542969 5.3203125 L 4.28125 6.5351562 A 4 4 0 0 1 8 4 A 4 4 0 0 1 10.691406 5.0488281 L 12.148438 3.5996094 C 11.107355 2.6096094 9.7010004 2 8.1230469 2 z"/>
 <path style="fill:#eead33" d="M 2.6542969 5.3203125 C 2.2368435 6.1303125 2 7.04 2 8 C 2 8.99 2.2524306 9.93 2.6933594 10.75 L 4.2949219 9.5019531 A 4 4 0 0 1 4 8 A 4 4 0 0 1 4.28125 6.5351562 L 2.6542969 5.3203125 z"/>
 <path style="fill:#359950" d="M 4.2949219 9.5019531 L 2.6933594 10.75 C 3.7272966 12.68 5.8010261 14 8.1230469 14 C 9.665277 14 11.043167 13.420937 12.078125 12.460938 L 10.425781 11.175781 A 4 4 0 0 1 8 12 A 4 4 0 0 1 4.2949219 9.5019531 z"/>
</svg>
